X:14
T:First of April THO4.014, The
M:6/8
L:1/8
Z:vmp. Peter Dunk 2010/11.from a transcription by Fynn Titford-Mock 2007
B:Thompson's Compleat Collection of 200 Favourite Country Dances Volume IV.
Q:3/8=110
K:A
ecA BGE|ecA BGE|ecA ecA|BcG A3::Ace aec|fed cBA|
Ace agf|ef^d e3|ecA BGE|ecA BGE|EBd cBA|BAG A3:|
